img/work.svg

<svg width="160" height="164" viewBox="0 0 160 164" fill="none" xmlns="http://www.w3.org/2000/svg">
<rect width="160" height="164" rx="45" fill="#093F68"/>
<rect x="50.9412" y="52.629" width="28.9802" height="13.0865" fill="#080C20"/>
<path fill-rule="evenodd" clip-rule="evenodd" d="M50.9412 66.1429H79.9257C80.1671 66.1429 80.3627 65.9456 80.3627 65.7024V52.629C80.3627 52.3858 80.1671 52.1886 79.9257 52.1886H50.9412C50.6999 52.1886 50.5042 52.3858 50.5042 52.629V65.7024C50.5042 65.9456 50.6999 66.1429 50.9412 66.1429ZM79.4887 65.2619H51.3782V53.0695H79.4887V65.2619Z" fill="#093F68"/>
<path d="M129.212 106.292H31.557V89.9946C31.5578 88.3796 31.7515 86.7706 32.1338 85.2023C32.3722 84.2619 32.6744 83.3391 33.0383 82.4405L37.762 70.7987L38.4961 68.9927C39.2983 67.0093 41.2086 65.7099 43.3334 65.7024H87.8218C89.2313 65.7023 90.5806 66.2776 91.5624 67.2969L94.9314 70.7811L106.446 82.7004C108.477 84.7996 111.262 85.9843 114.171 85.9863H122.911C125.265 85.9907 127.239 87.7806 127.49 90.14L128.067 95.3332L129.212 106.292Z" fill="#3EE9E5"/>
<path fill-rule="evenodd" clip-rule="evenodd" d="M31.557 106.733H129.212C129.338 106.728 129.456 106.669 129.535 106.57C129.619 106.476 129.659 106.351 129.645 106.226L127.94 90.1224C127.884 89.5547 127.729 89.0015 127.482 88.4882C126.649 86.7133 124.876 85.5801 122.928 85.5767H114.189C111.392 85.5798 108.712 84.4422 106.76 82.4229L91.877 67.0062C90.8104 65.9046 89.3488 65.2823 87.8218 65.2795H43.3378C41.0413 65.2688 38.9675 66.6623 38.0941 68.8033L32.6319 82.2555C32.2593 83.1797 31.9512 84.129 31.7099 85.0965C31.3203 86.6997 31.1222 88.3441 31.12 89.9946V106.292C31.12 106.536 31.3156 106.733 31.557 106.733ZM128.727 105.852H31.9939L32.0071 90.0123C32.0089 88.4344 32.1982 86.8625 32.5708 85.33C32.7988 84.4018 33.0908 83.4907 33.4447 82.6035L38.9244 69.1557C39.6485 67.3403 41.3923 66.1487 43.3334 66.1429H87.8218C89.1183 66.1423 90.36 66.6696 91.2652 67.6052L106.144 83.0219C108.257 85.2076 111.157 86.4402 114.185 86.44H122.924C124.536 86.4436 126.001 87.3812 126.691 88.8494C126.893 89.2733 127.022 89.7293 127.071 90.1973L128.727 105.852Z" fill="#093F68"/>
<path d="M30.1849 103.359H37.3906V107.988H30.1849C29.741 107.988 29.3153 107.81 29.0015 107.494C28.6876 107.178 28.5113 106.748 28.5113 106.301V105.046C28.5113 104.114 29.2606 103.359 30.1849 103.359Z" fill="#3EE9E5"/>
<path fill-rule="evenodd" clip-rule="evenodd" d="M30.1849 108.429H37.3731C37.492 108.433 37.6077 108.389 37.6934 108.306C37.7792 108.223 37.8276 108.108 37.8276 107.988V103.359C37.8276 103.115 37.6319 102.918 37.3906 102.918H30.1849C29.0209 102.921 28.0786 103.872 28.0786 105.046V106.301C28.0786 107.474 29.0209 108.426 30.1849 108.429ZM28.9526 105.046C28.9526 104.359 29.5036 103.802 30.1849 103.799H36.9536V107.548H30.1849C29.5036 107.545 28.9526 106.988 28.9526 106.301V105.046Z" fill="#093F68"/>
<path d="M122.627 103.359H129.815C130.739 103.359 131.489 104.114 131.489 105.046V106.301C131.489 106.748 131.312 107.178 130.999 107.494C130.685 107.81 130.259 107.988 129.815 107.988H122.627V103.359Z" fill="#3EE9E5"/>
<path fill-rule="evenodd" clip-rule="evenodd" d="M122.627 108.429H129.815C130.979 108.426 131.921 107.474 131.921 106.301V105.046C131.921 103.872 130.979 102.921 129.815 102.918H122.627C122.386 102.918 122.19 103.115 122.19 103.359V107.988C122.19 108.231 122.386 108.429 122.627 108.429ZM129.815 107.548H123.046L123.064 103.799H129.815C130.496 103.802 131.047 104.359 131.047 105.046V106.301C131.047 106.988 130.496 107.545 129.815 107.548Z" fill="#093F68"/>
<ellipse cx="113.271" cy="107.314" rx="11.1254" ry="11.2145" fill="#080C20"/>
<path fill-rule="evenodd" clip-rule="evenodd" d="M102.589 111.769C104.378 116.125 108.594 118.965 113.271 118.965C119.652 118.957 124.824 113.746 124.834 107.314C124.835 102.6 122.019 98.3486 117.699 96.5432C113.379 94.7379 108.405 95.7339 105.097 99.0669C101.789 102.4 100.799 107.413 102.589 111.769ZM103.396 103.191C105.051 99.1651 108.948 96.5401 113.271 96.5401V96.5357C119.174 96.5406 123.957 101.364 123.96 107.314C123.96 111.672 121.356 115.6 117.362 117.268C113.368 118.936 108.77 118.014 105.713 114.933C102.657 111.851 101.742 107.217 103.396 103.191Z" fill="#093F68"/>
<ellipse cx="113.271" cy="107.314" rx="5.39227" ry="5.43548" fill="#093F68"/>
<path fill-rule="evenodd" clip-rule="evenodd" d="M107.886 109.563C108.788 111.758 110.914 113.19 113.271 113.19C116.489 113.185 119.096 110.557 119.1 107.314C119.1 104.938 117.68 102.795 115.502 101.885C113.324 100.976 110.817 101.479 109.149 103.159C107.482 104.84 106.983 107.367 107.886 109.563ZM108.316 107.314C108.316 104.556 110.535 102.319 113.271 102.319C116.007 102.322 118.224 104.557 118.227 107.314C118.227 110.073 116.008 112.309 113.271 112.309C110.535 112.309 108.316 110.073 108.316 107.314Z" fill="#093F68"/>
<ellipse cx="45.5489" cy="107.314" rx="11.1254" ry="11.2145" fill="#080C20"/>
<path fill-rule="evenodd" clip-rule="evenodd" d="M34.8663 111.769C36.6556 116.125 40.872 118.965 45.5489 118.965C51.9309 118.96 57.104 113.747 57.1112 107.314C57.113 102.6 54.2971 98.3486 49.9766 96.5432C45.6562 94.7379 40.6823 95.7339 37.3746 99.0669C34.0669 102.4 33.0769 107.413 34.8663 111.769ZM34.8605 107.314C34.8605 101.364 39.6459 96.5401 45.5489 96.5401V96.5357C51.4516 96.5406 56.2349 101.364 56.2373 107.314C56.2373 113.265 51.4519 118.088 45.5489 118.088C39.6459 118.088 34.8605 113.265 34.8605 107.314Z" fill="#093F68"/>
<ellipse cx="45.5489" cy="107.314" rx="5.39227" ry="5.43548" fill="#093F68"/>
<path fill-rule="evenodd" clip-rule="evenodd" d="M39.7197 107.314C39.7197 110.559 42.3295 113.19 45.5489 113.19C48.7663 113.185 51.3733 110.557 51.3782 107.314C51.3782 104.069 48.7683 101.438 45.5489 101.438C42.3295 101.438 39.7197 104.069 39.7197 107.314ZM40.5936 107.314C40.5936 104.556 42.8122 102.319 45.5489 102.319C48.2846 102.322 50.5018 104.557 50.5042 107.314C50.5042 110.073 48.2856 112.309 45.5489 112.309C42.8122 112.309 40.5936 110.073 40.5936 107.314Z" fill="#093F68"/>
<path d="M64.6185 70.7943V85.2199H32.1294C32.3692 84.2736 32.6729 83.345 33.0383 82.4405L37.762 70.7987L64.6185 70.7943Z" fill="#080C20"/>
<path fill-rule="evenodd" clip-rule="evenodd" d="M32.1338 85.6604H64.6185C64.8598 85.6604 65.0555 85.4631 65.0555 85.2199V70.7943C65.0555 70.551 64.8598 70.3538 64.6185 70.3538H37.7489C37.5709 70.3529 37.4102 70.4609 37.3425 70.6269L32.6188 82.2687C32.2475 83.1934 31.9394 84.1426 31.6968 85.1098C31.6623 85.2441 31.6926 85.3869 31.7786 85.4953C31.8646 85.6036 31.9962 85.6648 32.1338 85.6604ZM64.1815 84.7794H32.7193H32.7018C32.9079 84.0409 33.1545 83.3145 33.4403 82.6035L38.0504 71.2348H64.1815V84.7794Z" fill="#093F68"/>
<path d="M110.151 85.2199H69.9496V70.7943H94.9052L106.42 82.7136C107.473 83.8066 108.745 84.661 110.151 85.2199Z" fill="#080C20"/>
<path fill-rule="evenodd" clip-rule="evenodd" d="M110.134 85.6604H110.136C110.345 85.6598 110.525 85.51 110.564 85.3028C110.604 85.0949 110.491 84.888 110.295 84.8102C108.953 84.2698 107.738 83.4503 106.73 82.4052L95.2155 70.4859C95.1337 70.4019 95.022 70.3543 94.9052 70.3538H69.9496C69.7082 70.3538 69.5126 70.551 69.5126 70.7943V85.2199C69.5126 85.4631 69.7082 85.6604 69.9496 85.6604H110.134ZM108.316 84.7794H70.3866L70.4128 71.2348H94.7479L106.131 83.0175C106.783 83.6951 107.517 84.2871 108.316 84.7794Z" fill="#093F68"/>
<path d="M99.0565 103.799H60.7731C60.5318 103.799 60.3361 103.602 60.3361 103.359C60.3361 103.115 60.5318 102.918 60.7731 102.918H99.039C99.2803 102.918 99.476 103.115 99.476 103.359C99.476 103.602 99.2803 103.799 99.039 103.799H99.0565Z" fill="#093F68"/>
<path d="M67.0175 101.949C66.7761 101.949 66.5805 101.752 66.5805 101.509V87.5456C66.5805 87.3023 66.7761 87.1051 67.0175 87.1051C67.2588 87.1051 67.4545 87.3023 67.4545 87.5456V101.509C67.4545 101.752 67.2588 101.949 67.0175 101.949Z" fill="#093F68"/>
<path d="M77.3781 90.2986H72.6544C72.4131 90.2986 72.2175 90.1014 72.2175 89.8581C72.2175 89.6148 72.4131 89.4176 72.6544 89.4176H77.3781C77.6195 89.4176 77.8151 89.6148 77.8151 89.8581C77.8151 90.1014 77.6195 90.2986 77.3781 90.2986Z" fill="#093F68"/>
<path d="M61.3805 90.2986H56.6743C56.4329 90.2986 56.2373 90.1014 56.2373 89.8581C56.2373 89.6148 56.4329 89.4176 56.6743 89.4176H61.3805C61.6218 89.4176 61.8175 89.6148 61.8175 89.8581C61.8175 90.1014 61.6218 90.2986 61.3805 90.2986Z" fill="#093F68"/>
<rect x="29.0312" y="88.6996" width="2.52571" height="7.4044" fill="#080C20"/>
<path fill-rule="evenodd" clip-rule="evenodd" d="M29.0313 96.5357H31.557C31.7983 96.5357 31.994 96.3385 31.994 96.0952V88.6996C31.994 88.4564 31.7983 88.2592 31.557 88.2592H29.0313C28.7899 88.2592 28.5943 88.4564 28.5943 88.6996V96.0952C28.5943 96.3385 28.7899 96.5357 29.0313 96.5357ZM31.12 95.6548H29.4682V89.1401H31.12V95.6548Z" fill="#093F68"/>
<path d="M128.067 95.3332H124.397C123.395 95.3332 122.583 94.5148 122.583 93.5052V90.4836C122.583 89.474 123.395 88.6556 124.397 88.6556H127.084C127.313 89.1262 127.461 89.6326 127.521 90.1532L128.067 95.3332Z" fill="#080C20"/>
<path fill-rule="evenodd" clip-rule="evenodd" d="M124.397 95.7737H128.067C128.192 95.7746 128.311 95.7217 128.395 95.6283C128.477 95.5359 128.517 95.4127 128.504 95.2892L127.936 90.1048C127.879 89.5358 127.724 88.9813 127.477 88.4662C127.405 88.3132 127.252 88.2156 127.084 88.2151H124.397C123.155 88.2175 122.149 89.2317 122.146 90.4836V93.5052C122.149 94.7571 123.155 95.7713 124.397 95.7737ZM123.033 90.4836C123.033 89.7173 123.65 89.0961 124.41 89.0961H126.813C126.95 89.4498 127.041 89.82 127.084 90.1973L127.582 94.8927H124.41C123.65 94.8927 123.033 94.2715 123.033 93.5052V90.4836Z" fill="#093F68"/>
<path d="M40.7946 82.5374C40.6571 82.5374 40.5276 82.4721 40.445 82.3612C40.3755 82.2677 40.3456 82.1503 40.362 82.0346C40.3784 81.919 40.4397 81.8146 40.5324 81.7445L51.5529 73.4151C51.6456 73.345 51.7622 73.3149 51.8769 73.3315C51.9916 73.348 52.0952 73.4098 52.1647 73.5032C52.2342 73.5967 52.2641 73.7141 52.2477 73.8298C52.2313 73.9454 52.17 74.0498 52.0773 74.1199L41.0568 82.4405C40.9823 82.5008 40.8902 82.5349 40.7946 82.5374Z" fill="#093F68"/>
<path d="M53.5368 81.1895C53.351 81.1903 53.185 81.0726 53.123 80.896C53.061 80.7195 53.1166 80.5227 53.2615 80.4055L61.1052 73.9261C61.1949 73.8517 61.3104 73.8164 61.426 73.8279C61.5416 73.8395 61.6479 73.897 61.7213 73.9877C61.7952 74.0782 61.8302 74.1945 61.8187 74.3111C61.8072 74.4276 61.7502 74.5348 61.6602 74.6088L53.8165 81.0882C53.7379 81.1539 53.6389 81.1897 53.5368 81.1895Z" fill="#093F68"/>
<path d="M75.0054 82.5374C74.8827 82.5382 74.7654 82.4871 74.682 82.3964C74.6032 82.3097 74.5621 82.1947 74.5678 82.0773C74.5736 81.9598 74.6257 81.8495 74.7126 81.7709L84.8067 72.4373C84.9853 72.2731 85.2621 72.2859 85.425 72.4659C85.5879 72.6459 85.5752 72.925 85.3966 73.0892L75.3025 82.4405C75.2187 82.5086 75.1129 82.5431 75.0054 82.5374Z" fill="#093F68"/>
<path d="M88.4336 81.1895C88.3184 81.1879 88.2084 81.1404 88.1277 81.0574C87.9583 80.8856 87.9583 80.6081 88.1277 80.4363L92.9345 75.5911C93.1049 75.4203 93.3802 75.4203 93.5506 75.5911C93.72 75.7629 93.72 76.0403 93.5506 76.2121L88.7439 81.0574C88.6621 81.1414 88.5504 81.189 88.4336 81.1895Z" fill="#093F68"/>
<path fill-rule="evenodd" clip-rule="evenodd" d="M45.479 66.1429H85.1039C85.2375 66.1377 85.3615 66.0712 85.4403 65.9623C85.5227 65.8477 85.5455 65.7002 85.5015 65.5658L83.6138 59.7295C83.5552 59.5484 83.3877 59.4257 83.1987 59.4256H47.3667C47.1697 59.4159 46.9907 59.5404 46.9298 59.7295L45.042 65.5658C44.9972 65.7037 45.0227 65.8549 45.11 65.9702C45.1973 66.0855 45.3353 66.1501 45.479 66.1429ZM84.5052 65.2619H46.0908L47.6945 60.3065H82.9015L84.5052 65.2619Z" fill="#093F68"/>
<rect x="56.6" y="45.4757" width="18.9997" height="7.15333" fill="#080C20"/>
<path fill-rule="evenodd" clip-rule="evenodd" d="M56.6 53.0695H75.5953C75.8366 53.0695 76.0323 52.8723 76.0323 52.629V45.4757C76.0323 45.2324 75.8366 45.0352 75.5953 45.0352H56.6C56.3587 45.0352 56.163 45.2324 56.163 45.4757V52.629C56.163 52.8723 56.3587 53.0695 56.6 53.0695ZM75.1583 52.1886H57.037V45.9162H75.1583V52.1886Z" fill="#093F68"/>
<path d="M57.2118 66.1429C57.1697 66.1491 57.1271 66.1491 57.085 66.1429C56.8551 66.0728 56.7244 65.8289 56.7923 65.5967L62.7613 45.3348C62.8308 45.103 63.0728 44.9712 63.3032 45.0396C63.5349 45.1078 63.6679 45.3523 63.6003 45.5858L57.6313 65.8477C57.5691 66.027 57.4001 66.1459 57.2118 66.1429Z" fill="#093F68"/>
<path d="M75.2588 66.1429C75.0582 66.1509 74.8779 66.0201 74.8219 65.8257L69.0014 45.5638C68.9366 45.3317 69.069 45.0902 69.2985 45.022C69.4098 44.9893 69.5293 45.0025 69.631 45.0587C69.7326 45.1148 69.8079 45.2094 69.8403 45.3215L75.6609 65.5835C75.7284 65.817 75.5954 66.0615 75.3637 66.1296C75.3295 66.139 75.2942 66.1435 75.2588 66.1429Z" fill="#093F68"/>
<path d="M55.3371 54.8446H53.1173C52.876 54.8446 52.6803 54.6474 52.6803 54.4042C52.6803 54.1609 52.876 53.9637 53.1173 53.9637H55.3371C55.5785 53.9637 55.7741 54.1609 55.7741 54.4042C55.7741 54.6474 55.5785 54.8446 55.3371 54.8446Z" fill="#093F68"/>
<path d="M59.4622 47.5944H58.0857C57.8444 47.5944 57.6487 47.3972 57.6487 47.1539C57.6487 46.9107 57.8444 46.7135 58.0857 46.7135H59.4622C59.7035 46.7135 59.8992 46.9107 59.8992 47.1539C59.8992 47.3972 59.7035 47.5944 59.4622 47.5944Z" fill="#093F68"/>
</svg>

<svg xmlns="http://www.w3.org/2000/svg" fill="none" viewBox="0 0 160 164"><rect width="160" height="164" fill="#093F68" rx="45"/><path fill="#080C20" d="M50.941 52.629h28.98v13.086h-28.98z"/><path fill="#093F68" fill-rule="evenodd" d="M50.941 66.143h28.985a.439.439 0 0 0 .437-.44V52.628a.439.439 0 0 0-.437-.44H50.94a.439.439 0 0 0-.437.44v13.073c0 .244.196.44.437.44Zm28.548-.881h-28.11V53.069h28.11v12.193Z" clip-rule="evenodd"/><path fill="#3EE9E5" d="M129.212 106.292H31.557V89.995c0-1.615.195-3.224.577-4.793.238-.94.54-1.863.904-2.761l4.724-11.642.734-1.806a5.244 5.244 0 0 1 4.837-3.29h44.489c1.41 0 2.759.575 3.74 1.594l3.37 3.484 11.514 11.92a10.759 10.759 0 0 0 7.725 3.285h8.74c2.354.005 4.328 1.795 4.579 4.154l.577 5.193 1.145 10.959Z"/><path fill="#093F68" fill-rule="evenodd" d="M31.557 106.733h97.655a.435.435 0 0 0 .323-.163.442.442 0 0 0 .11-.344l-1.705-16.104a4.872 4.872 0 0 0-.458-1.634 5.045 5.045 0 0 0-4.554-2.911h-8.739a10.317 10.317 0 0 1-7.429-3.154L91.877 67.006a5.659 5.659 0 0 0-4.055-1.727H43.338a5.641 5.641 0 0 0-5.244 3.524l-5.462 13.453c-.373.924-.68 1.873-.922 2.84a20.861 20.861 0 0 0-.59 4.899v16.297c0 .244.196.441.437.441Zm97.17-.881H31.994l.013-15.84a19.916 19.916 0 0 1 1.438-7.409l5.48-13.447a4.768 4.768 0 0 1 4.408-3.013h44.489c1.296 0 2.538.527 3.443 1.462l14.879 15.417a11.183 11.183 0 0 0 8.041 3.418h8.739a4.176 4.176 0 0 1 3.767 2.41c.202.423.331.88.38 1.347l1.656 15.655Z" clip-rule="evenodd"/><path fill="#3EE9E5" d="M30.185 103.359h7.206v4.629h-7.206c-.444 0-.87-.178-1.183-.494a1.694 1.694 0 0 1-.49-1.193v-1.255c0-.932.749-1.687 1.673-1.687Z"/><path fill="#093F68" fill-rule="evenodd" d="M30.185 108.429h7.188a.439.439 0 0 0 .455-.441v-4.629a.439.439 0 0 0-.437-.441h-7.206a2.12 2.12 0 0 0-2.106 2.128v1.255a2.12 2.12 0 0 0 2.106 2.128Zm-1.232-3.383c0-.687.55-1.244 1.232-1.247h6.769v3.749h-6.77a1.242 1.242 0 0 1-1.231-1.247v-1.255Z" clip-rule="evenodd"/><path fill="#3EE9E5" d="M122.627 103.359h7.188a1.68 1.68 0 0 1 1.674 1.687v1.255c0 .447-.177.877-.49 1.193a1.67 1.67 0 0 1-1.184.494h-7.188v-4.629Z"/><path fill="#093F68" fill-rule="evenodd" d="M122.627 108.429h7.188a2.12 2.12 0 0 0 2.106-2.128v-1.255a2.12 2.12 0 0 0-2.106-2.128h-7.188a.439.439 0 0 0-.437.441v4.629a.44.44 0 0 0 .437.441Zm7.188-.881h-6.769l.018-3.749h6.751c.681.003 1.232.56 1.232 1.247v1.255c0 .687-.551 1.244-1.232 1.247Z" clip-rule="evenodd"/><ellipse cx="113.271" cy="107.314" fill="#080C20" rx="11.125" ry="11.214"/><path fill="#093F68" fill-rule="evenodd" d="M102.589 111.769c1.789 4.356 6.005 7.196 10.682 7.196 6.381-.008 11.553-5.219 11.563-11.651.001-4.714-2.815-8.965-7.135-10.77a11.496 11.496 0 0 0-12.602 2.523 11.722 11.722 0 0 0-2.508 12.702Zm.807-8.578c1.655-4.026 5.552-6.65 9.875-6.65v-.005c5.903.005 10.686 4.828 10.689 10.778 0 4.358-2.604 8.286-6.598 9.954a10.628 10.628 0 0 1-11.649-2.335 10.84 10.84 0 0 1-2.317-11.742Z" clip-rule="evenodd"/><ellipse cx="113.271" cy="107.314" fill="#093F68" rx="5.392" ry="5.435"/><path fill="#093F68" fill-rule="evenodd" d="M107.886 109.563a5.83 5.83 0 0 0 5.385 3.627c3.218-.005 5.825-2.633 5.829-5.876a5.878 5.878 0 0 0-3.598-5.429 5.798 5.798 0 0 0-6.353 1.274 5.91 5.91 0 0 0-1.263 6.404Zm.43-2.249c0-2.758 2.219-4.995 4.955-4.995 2.736.003 4.953 2.238 4.956 4.995 0 2.759-2.219 4.995-4.956 4.995-2.736 0-4.955-2.236-4.955-4.995Z" clip-rule="evenodd"/><ellipse cx="45.549" cy="107.314" fill="#080C20" rx="11.125" ry="11.214"/><path fill="#093F68" fill-rule="evenodd" d="M34.866 111.769c1.79 4.356 6.006 7.196 10.683 7.196 6.382-.005 11.555-5.218 11.562-11.651.002-4.714-2.814-8.965-7.134-10.77a11.495 11.495 0 0 0-12.602 2.523 11.723 11.723 0 0 0-2.509 12.702Zm-.005-4.455c0-5.95 4.785-10.774 10.688-10.774v-.004c5.903.005 10.686 4.828 10.688 10.778 0 5.951-4.785 10.774-10.688 10.774-5.903 0-10.688-4.823-10.688-10.774Z" clip-rule="evenodd"/><ellipse cx="45.549" cy="107.314" fill="#093F68" rx="5.392" ry="5.435"/><path fill="#093F68" fill-rule="evenodd" d="M39.72 107.314c0 3.245 2.61 5.876 5.829 5.876 3.217-.005 5.824-2.633 5.83-5.876 0-3.245-2.61-5.876-5.83-5.876s-5.83 2.631-5.83 5.876Zm.874 0c0-2.758 2.218-4.995 4.955-4.995 2.736.003 4.953 2.238 4.955 4.995 0 2.759-2.218 4.995-4.955 4.995s-4.955-2.236-4.955-4.995Z" clip-rule="evenodd"/><path fill="#080C20" d="M64.618 70.794V85.22H32.13c.24-.946.544-1.875.91-2.78L37.761 70.8l26.856-.005Z"/><path fill="#093F68" fill-rule="evenodd" d="M32.134 85.66h32.484a.439.439 0 0 0 .438-.44V70.794a.439.439 0 0 0-.438-.44h-26.87a.437.437 0 0 0-.405.273l-4.724 11.642c-.371.924-.68 1.874-.922 2.84a.443.443 0 0 0 .082.386c.086.109.217.17.355.165Zm32.047-.88H32.703a20.89 20.89 0 0 1 .738-2.177l4.61-11.368h26.132v13.544Z" clip-rule="evenodd"/><path fill="#080C20" d="M110.151 85.22H69.95V70.794h24.955l11.515 11.92a10.639 10.639 0 0 0 3.731 2.506Z"/><path fill="#093F68" fill-rule="evenodd" d="M110.134 85.66h.002a.44.44 0 0 0 .159-.85 10.3 10.3 0 0 1-3.565-2.405l-11.514-11.92a.436.436 0 0 0-.31-.131H69.95a.439.439 0 0 0-.437.44V85.22c0 .243.195.44.437.44h40.184Zm-1.818-.88h-37.93l.027-13.545h24.335l11.383 11.782c.652.678 1.386 1.27 2.185 1.762Z" clip-rule="evenodd"/><path fill="#093F68" d="M99.056 103.799H60.773a.439.439 0 0 1-.437-.44c0-.244.196-.441.437-.441H99.04c.241 0 .437.197.437.441 0 .243-.196.44-.437.44h.017ZM67.017 101.949a.438.438 0 0 1-.436-.44V87.546c0-.244.195-.44.436-.44.242 0 .438.196.438.44v13.963c0 .243-.196.44-.438.44ZM77.378 90.299h-4.724a.439.439 0 0 1-.436-.44c0-.244.195-.441.436-.441h4.724c.242 0 .437.197.437.44s-.195.44-.437.44ZM61.38 90.299h-4.706a.439.439 0 0 1-.437-.44c0-.244.196-.441.437-.441h4.706c.242 0 .438.197.438.44s-.196.44-.438.44Z"/><path fill="#080C20" d="M29.031 88.7h2.526v7.404h-2.526z"/><path fill="#093F68" fill-rule="evenodd" d="M29.031 96.536h2.526a.439.439 0 0 0 .437-.44V88.7a.439.439 0 0 0-.437-.44h-2.526a.439.439 0 0 0-.437.44v7.395c0 .243.196.44.437.44Zm2.089-.881h-1.652V89.14h1.652v6.515Z" clip-rule="evenodd"/><path fill="#080C20" d="M128.067 95.333h-3.67a1.82 1.82 0 0 1-1.814-1.828v-3.021a1.82 1.82 0 0 1 1.814-1.828h2.687c.229.47.377.977.437 1.497l.546 5.18Z"/><path fill="#093F68" fill-rule="evenodd" d="M124.397 95.774h3.67a.437.437 0 0 0 .437-.485l-.568-5.184a4.924 4.924 0 0 0-.459-1.639.436.436 0 0 0-.393-.25h-2.687a2.265 2.265 0 0 0-2.251 2.268v3.021a2.265 2.265 0 0 0 2.251 2.269Zm-1.364-5.29c0-.767.617-1.388 1.377-1.388h2.403c.137.354.228.724.271 1.101l.498 4.696h-3.172c-.76 0-1.377-.621-1.377-1.388v-3.021Z" clip-rule="evenodd"/><path fill="#093F68" d="M40.795 82.537a.436.436 0 0 1-.35-.176.443.443 0 0 1 .087-.617l11.02-8.329a.434.434 0 0 1 .613.088.443.443 0 0 1-.088.617l-11.02 8.32a.435.435 0 0 1-.262.097ZM53.537 81.19a.437.437 0 0 1-.414-.294.443.443 0 0 1 .139-.49l7.843-6.48a.435.435 0 0 1 .616.062.443.443 0 0 1-.06.62l-7.845 6.48a.435.435 0 0 1-.28.102ZM75.005 82.537a.435.435 0 0 1-.437-.46.442.442 0 0 1 .145-.306l10.094-9.334a.435.435 0 0 1 .618.029c.163.18.15.459-.028.623l-10.095 9.352a.435.435 0 0 1-.297.096ZM88.434 81.19a.443.443 0 0 1-.306-.753l4.806-4.846c.17-.17.446-.17.617 0 .169.172.169.45 0 .621l-4.807 4.845a.436.436 0 0 1-.31.132Z"/><path fill="#093F68" fill-rule="evenodd" d="M45.479 66.143h39.625a.436.436 0 0 0 .397-.577l-1.887-5.837a.437.437 0 0 0-.415-.303H47.367a.437.437 0 0 0-.437.303l-1.888 5.837a.443.443 0 0 0 .068.404c.087.115.225.18.369.173Zm39.026-.881H46.091l1.603-4.956h35.207l1.604 4.956Z" clip-rule="evenodd"/><path fill="#080C20" d="M56.6 45.476h19v7.153h-19z"/><path fill="#093F68" fill-rule="evenodd" d="M56.6 53.07h18.995a.439.439 0 0 0 .437-.441v-7.153a.439.439 0 0 0-.437-.44H56.6a.439.439 0 0 0-.437.44v7.153c0 .243.196.44.437.44Zm18.558-.881H57.037v-6.273h18.121v6.273Z" clip-rule="evenodd"/><path fill="#093F68" d="M57.212 66.143a.435.435 0 0 1-.127 0 .441.441 0 0 1-.293-.546l5.97-20.262a.437.437 0 0 1 .541-.295.441.441 0 0 1 .297.546l-5.969 20.262a.437.437 0 0 1-.42.295ZM75.259 66.143a.437.437 0 0 1-.437-.317l-5.82-20.262a.441.441 0 0 1 .297-.542.434.434 0 0 1 .541.3l5.82 20.261a.441.441 0 0 1-.296.547.372.372 0 0 1-.105.013ZM55.337 54.845h-2.22a.439.439 0 0 1-.437-.44c0-.244.196-.441.437-.441h2.22c.241 0 .437.197.437.44s-.196.44-.437.44ZM59.462 47.594h-1.376a.439.439 0 0 1-.437-.44c0-.243.195-.44.437-.44h1.376c.241 0 .437.197.437.44s-.196.44-.437.44Z"/></svg>
